X: 10341
M: C
L: 1/8
K: G
d |\
g2dB ~G2BG | ~E2AE FDDd |\
d |\
(ef).g.e (fg)ab | (Tgfg)e fddf |
(ef)ge (fga)g | (Tfef)d g2Bd |\
efge dBgB | ceBd .A(FED) |\


